src/topics/icons/ello.svg

<svg height="256" preserveAspectRatio="xMidYMid" viewBox="0 0 256 256" width="256" xmlns="http://www.w3.org/2000/svg"><path d="m256 128c0 70.692-57.31 128-128 128-70.694 0-128-57.308-128-128 0-70.6925 57.306-128 128-128 70.69 0 128 57.3075 128 128zm-128 76.8005c-34.9925 0-65.544-23.685-74.29-57.6035-1.008-3.9085 1.346-7.9005 5.2545-8.9095 3.9165-1.012 7.9 1.3465 8.9085 5.259 7.0835 27.452 31.805 46.6285 60.127 46.6285 28.3175 0 53.0435-19.1765 60.123-46.6285 1.008-3.9125 4.9875-6.2755 8.9085-5.259 3.9125 1.009 6.2665 5.001 5.254 8.9095-8.746 33.9185-39.2925 57.6035-74.2855 57.6035z" fill-rule="evenodd"/></svg>

<?xml version="1.0" encoding="UTF-8" standalone="no"?>
<svg width="256px" height="256px" viewBox="0 0 256 256" version="1.1" xmlns="http://www.w3.org/2000/svg" xmlns:xlink="http://www.w3.org/1999/xlink" preserveAspectRatio="xMidYMid">
    <g fill-rule="evenodd">
        <path d="M256,128 C256,198.692 198.69,256 128,256 C57.306,256 0,198.692 0,128 C0,57.3075 57.306,0 128,0 C198.69,0 256,57.3075 256,128 Z M128,204.8005 C93.0075,204.8005 62.456,181.1155 53.71,147.197 C52.702,143.2885 55.056,139.2965 58.9645,138.2875 C62.881,137.2755 66.8645,139.634 67.873,143.5465 C74.9565,170.9985 99.678,190.175 128,190.175 C156.3175,190.175 181.0435,170.9985 188.123,143.5465 C189.131,139.634 193.1105,137.271 197.0315,138.2875 C200.944,139.2965 203.298,143.2885 202.2855,147.197 C193.5395,181.1155 162.993,204.8005 128,204.8005 Z" fill="#000000"></path>
    </g>
</svg>
